X: 1011
M: 6/8
L: 1/8
K: F
(3c/d/e/ |\
f2f f2f | f2f f2f | a2f gfe | f3- f2z |\
g2g g2g | g2g g2g | g2e fed | c3- c2 :|
|: A/B/ |\
c3 d2c | cfz z2A/B/ | c3 d2c | cgz z2A/B/ |\
c3 d2c | caz gfz | dfz cfz | egz cde | f3- f2 :|
czz czz | c3- c=Bc | A6- | A3- ABc |\
d6- | (d3 f)ed | c6- | c3- cBA |\
f2e f2e | f3- f2 |]
czz czz | c3- c=Bc | A6- | A3 ABc |\
d6- | d3 fed | c6- | c3 cBA |\
f2e f2e | f3- f2 |]

